X: 04092
T: TOM ANDERSON'S REEL
C: Bob McQuillen 16 July 79
B: Bob's Note Book 04 #92
R: reel
Z: 2020 John Chambers <jc:trillian.mit.edu>
M: C
L: 1/8
K: Bm
FA \
| B2dB AFDF | EDEF D2FA | B2dB AFDA | BdcA B2Bc |
| dBAF EFAB | AFDF E2DE | FEFA Bdde | fdBA B2 :|
|: de \
| fgfd efde | fdBA B2de | fgfd efed | cAAF ABAG |
| FEFA BABc | defd efde | fedB AFDE | FBBA B2 :|
%%begintext align
%% When Aly Bain and the Boys of the Lough
%% were over here this spring, they brought
%% a gread fiddler with them, and so this
%% tune is for Tom Anderson, with very Best Wishes.
%%endtext

%%sep 1 1 500

%%sep 1 1 500

